TO KOCHLINE :L :W
	IF :L = 0 FD :W
	IF :L > 0 KOCHLINE :L-1 :W/3 LT 60 KOCHLINE :L-1 :W/3 RT 120 KOCHLINE :L-1 :W/3 LT 60 KOCHLINE :L-1 :W/3
END

TO KOCHSNOW :L :W
	REPEAT 3 [ KOCHLINE :L :W RT 120]
END